ti/point-of-interest-outline.svg

<svg version="1.2" baseProfile="tiny" xmlns="http://www.w3.org/2000/svg" viewBox="0 0 24 24" height="1em" width="1em">
  <path d="M16.5 4c1.93 0 3.5 1.57 3.5 3.5s-1.57 3.5-3.5 3.5h-1.5v2h1.5c1.93 0 3.5 1.57 3.5 3.5s-1.57 3.5-3.5 3.5-3.5-1.57-3.5-3.5v-1.5h-2v1.5c0 1.93-1.57 3.5-3.5 3.5s-3.5-1.57-3.5-3.5 1.57-3.5 3.5-3.5h1.5v-2h-1.5c-1.93 0-3.5-1.57-3.5-3.5s1.57-3.5 3.5-3.5 3.5 1.57 3.5 3.5v1.5h2v-1.5c0-1.93 1.57-3.5 3.5-3.5m-1.5 5h1.5c.827 0 1.5-.674 1.5-1.5 0-.828-.673-1.5-1.5-1.5s-1.5.672-1.5 1.5v1.5m-7.5 0h1.5v-1.5c0-.828-.673-1.5-1.5-1.5s-1.5.672-1.5 1.5c0 .826.673 1.5 1.5 1.5m9 9c.827 0 1.5-.674 1.5-1.5 0-.828-.673-1.5-1.5-1.5h-1.5v1.5c0 .826.673 1.5 1.5 1.5m-9 0c.827 0 1.5-.674 1.5-1.5v-1.5h-1.5c-.827 0-1.5.672-1.5 1.5 0 .826.673 1.5 1.5 1.5m9-16c-1.857 0-3.504.926-4.5 2.341-.996-1.415-2.643-2.341-4.5-2.341-3.033 0-5.5 2.468-5.5 5.5 0 1.857.926 3.504 2.341 4.5-1.415.996-2.341 2.643-2.341 4.5 0 3.032 2.467 5.5 5.5 5.5 1.857 0 3.504-.926 4.5-2.341.996 1.415 2.643 2.341 4.5 2.341 3.033 0 5.5-2.468 5.5-5.5 0-1.857-.926-3.504-2.341-4.5 1.415-.996 2.341-2.643 2.341-4.5 0-3.032-2.467-5.5-5.5-5.5zM13 11h-2v2h2z"/>
</svg>

<svg version="1.2" baseProfile="tiny" xmlns="http://www.w3.org/2000/svg" viewBox="0 0 24 24" height="1em" width="1em">
  <path d="M16.5 4C18.43 4 20 5.57 20 7.5S18.43 11 16.5 11H15v2h1.5c1.93 0 3.5 1.57 3.5 3.5S18.43 20 16.5 20 13 18.43 13 16.5V15h-2v1.5c0 1.93-1.57 3.5-3.5 3.5S4 18.43 4 16.5 5.57 13 7.5 13H9v-2H7.5C5.57 11 4 9.43 4 7.5S5.57 4 7.5 4 11 5.57 11 7.5V9h2V7.5C13 5.57 14.57 4 16.5 4M15 9h1.5A1.501 1.501 0 1 0 15 7.5V9M7.5 9H9V7.5a1.501 1.501 0 0 0-3 0C6 8.326 6.673 9 7.5 9m9 9a1.501 1.501 0 0 0 0-3H15v1.5c0 .826.673 1.5 1.5 1.5m-9 0c.827 0 1.5-.674 1.5-1.5V15H7.5a1.501 1.501 0 0 0 0 3m9-16A5.498 5.498 0 0 0 12 4.341 5.498 5.498 0 0 0 7.5 2 5.506 5.506 0 0 0 2 7.5c0 1.857.926 3.504 2.341 4.5A5.498 5.498 0 0 0 2 16.5C2 19.532 4.467 22 7.5 22a5.498 5.498 0 0 0 4.5-2.341A5.498 5.498 0 0 0 16.5 22c3.033 0 5.5-2.468 5.5-5.5a5.498 5.498 0 0 0-2.341-4.5A5.498 5.498 0 0 0 22 7.5C22 4.468 19.533 2 16.5 2zM13 11h-2v2h2z"/>
</svg>
